!!!ONB: MCCC : IJH0419_01 : Extracted Monophonic Melody
!!!COM: Haydn, Joseph
!!!OPR: String Quartet in C major
!!!OMV: 1
!!!SCT: Hob.III:45 ; Op.50 No.2
!!!ODT: 1787///
**kern
*thru
*k[]
*C:
*clefG
*M3/4
2.cc[
=1
4cc]
4b
4cc
=2
4cc#
2dd[
=3
4dd]
4cc#
4dd
=4
2.ff
=5
4ee
4dd
4ee
=6
2aa
16gg
16ff
16ee
16dd
=7
2cc
4dd
=8
4cc
2r
=9
2.g
=10
4e
2r
=11
2cc
16b
16a
16g
16f#
=12
4.g
16a
16b
16cc
16dd
16ee
16ff#
=13
4.gg
16aa
16bb
16ccc
16ddd
16eee
16fff#
=14
8ggg
8r
8ddd
8r
8bb
8r
=15
8gg
8r
8dd
8r
8b
8r
=16
8g
8r
8g
8r
8g
8r
=17
4g
2r
=18
8f
8r
8f
8r
8f
8r
=19
4f
2r
=20
2.cc[
=21
4cc]
4b
4cc
=22
4cc#
2dd[
=23
4dd]
4cc#
4dd
=24
2.ff
=25
4ee
4dd
4ee
=26
4.ff
16gg
16aa
16gg
16ff
16ee
16dd
=27
2cc
4dd
=28
4cc
2r
=29
2.g
=30
4e
2r
=31
2cc
16b
16a
16g
16f#
=32
4.g
16a
16b
16cc
16dd
16ee
16ff#
=33
2gg
16ff#
16ee
16dd
16cc#
=34
4dd
2r
=35
4.dd
16ee
16ff#
16gg
16aa
16bb
16ccc#
=36
4ddd
2r
=37
4.dd
16ee
16ff#
16gg
16aa
16bb
16ccc#
=38
4ddd
2r
=39
4.dd
16ee
16ff#
16gg
16aa
16bb
16ccc#
=40
4ddd
2r
=41
2.r
=42
4r
4ddd
4ddd
=43
2ff#
8aa
16gg
16aa
=44
4gg
4dd
8bb
16aa
16bb
=45
4aa
4dd
8ccc
16bb
16ccc
=46
4bb
4ddd
4ddd
=47
4ddd
4ff#
8aa
16gg
16aa
=48
4gg
4dd
8bb
16aa
16bb
=49
4aa
4dd
8ccc
16bb
16ccc
=50
4bb
4gg
4eee
=51
2ddd
4ccc#
=52
8.ddd
16eee
8.fff#
16ggg
8.aaa
16bbb
=53
4cccc
2r
=54
2.cc
=55
4b
4a
4ee
=56
2g
4a
=57
4gg
4dd
4dd
=58
4gg
4dd#
4dd#
=59
2.dd#
=60
4ee
8dd
8cc
8b
8a
=61
2g
4a
=62
4gg
4dd
4dd
=63
4gg
4ee-
4ee-
=64
2.ee-[
=65
4ee-]
4ee-
4ee-
=66
2.ee-
=67
4dd-
4cc
4dd-
=68
4dd-
4cc
4cc
=69
4r
4cc
4cc
=70
4cc
4dd-
4cc
=71
4r
4cc
4cc
=72
4cc
4dd-
4cc
=73
4r
4cc
4cc
=74
4cc
4dd-
4cc
=75
4r
4cc
4cc
=76
4cc
4dd
4cc
=77
4b-
4a
4b-
=78
4a
4dd
4dd
=79
2dd
4cc#
=80
2dd
4ff#
=81
2gg
4cc#
=82
4dd
2r
=83
2.r
=84
4r
4gg
4gg
=85
2.gg
=86
2.gg
=87
2.gg
=88
2.gg
=89
2.gg[
=90
4gg]
4ee
4cc
=91
4b
4cc
4a
=92
8g
16a
16b
16cc
16dd
16ee
16ff#
16gg
16aa
16bb
16ccc
=93
8ddd
8bb
8gg
8dd
8b
8g
=94
4e
4eee
4r
=95
8r
8ddd#
8eee
8ccc#
8ddd
8bb
=96
8ccc
8gg#
8aa
8bb
8ccc
8aa
=97
2.aa[
=98
2.aa]
=99
4gg
2r
=100
2.dd
=101
4b
2r
=102
2.ccc
=103
4bb
2r
=104
2.fff#
=105
4ggg
2r
=106
2.r
=107
2.r
=108
2.r
=109
2.r
=110
2.r
=111
2.r
=112
4r
4ee
4cc
=113
4dd
2gg[
=114
4gg]
4ff
4dd
=115
4ee
4aa
4gg
=116
2.ff[
=117
4ff]
4ee
4ff
=118
4ff#
2gg
=119
4ff
4f
4f
=120
4f
2r
=121
4r
4e
4e
=122
4e
2r
=123
4r
4e-
4e-
=124
4e-
2r
=125
2.gg[
=126
4gg]
4ff#
4gg
=127
4gg#
2aa[
=128
4aa]
4gg#
4aa
=129
2.ccc
=130
4bb
4aa
4bb
=131
2.ccc[
=132
4ccc]
4ddd
4ccc
=133
4bb
2bb-[
=134
4bb-]
4ccc
4bb-
=135
2.gg#
=136
4aa
4bb-
4aa
=137
4gg
4ccc
4aa
=138
2.ff[
=139
4ff]
4gg
4ff
=140
2.ee[
=141
4ee]
4dd
4cc
=142
2.b
=143
4b-
4b-
4b-
=144
4a
2r
=145
4r
4cc
4cc
=146
4b
2r
=147
4r
4dd
4dd
=148
2cc
4ee
=149
2.dd#
=150
4ee
2r
=151
4.ee
16ff#
16gg#
16aa
16bb
16ccc
16ddd
=152
4eee
2r
=153
4.ee
16ff#
16gg#
16aa
16bb
16ccc
16ddd
=154
4eee
2r
=155
4.ee
16ff#
16gg#
16aa
16bb
16ccc
16ddd
=156
4eee
2r
=157
2.r
=158
2.r
=159
2.r
=160
2.r
=161
2.r
=162
4r
4ccc
4ccc
=163
2ee
8gg
16ff
16gg
=164
4ff
4cc
8aa
16gg
16aa
=165
4gg
4cc
8bb-
16aa
16bb-
=166
4aa
2r
=167
4r
4aa
4aa
=168
8aa
8ccc#
8ddd
8ccc#
8ddd
8eee
=169
4fff
4ddd
4bb
=170
4ccc
8ccc
8bb
8ccc
8ddd
=171
8eee
8ccc
8bb
8aa
8gg
8ff#
=172
4gg
4gg
4gg
=173
4gg
4gg
4gg
=174
4gg
2r
=175
2.cc[
=176
4cc]
4b
4cc
=177
4cc#
2dd[
=178
4dd]
4cc#
4dd
=179
2.ff
=180
4ee
4dd
4ee
=181
2aa
16gg
16ff
16ee
16dd
=182
2cc
4dd
=183
4cc
2r
=184
2.g
=185
4e
2r
=186
2cc
16b
16a
16g
16f#
=187
4.g
16a
16b
16cc
16dd
16ee
16ff#
=188
4.gg
16aa
16bb
16ccc
16ddd
16eee
16fff#
=189
4ggg
8ddd
8r
8bb
8r
=190
8gg
8r
8dd
8r
8b
8r
=191
8g
8r
8g
8r
8g
8r
=192
4g
2r
=193
8f
8r
8f
8r
8f
8r
=194
4f
2r
=195
2.r
=196
2.r
=197
2.r
=198
2.r
=199
2.r
=200
2.r
=201
2.r
=202
2.gg[
=203
4gg]
4aa
4gg
=204
4ff#
2ff[
=205
4ff]
4gg
4ff
=206
2.ee
=207
4ff
2r
=208
2.r
=209
2.gg[
=210
4gg]
4ff#
4gg
=211
4gg#
2aa[
=212
4aa]
4gg
4aa
=213
4aa#
2bb
=214
4ddd
2ccc
=215
4aa
2ff#
=216
4aa
2gg
=217
4dd
4dd
4ee
=218
2gg
4ff
=219
2.r
=220
2.r
=221
4dd
4dd
4ee
=222
2.gg
=223
2.ff
=224
4r
4gg
4gg
=225
2b
8dd
16cc
16dd
=226
4cc
4g
8ee
16dd
16ee
=227
4dd
4g
8ff
16ee
16ff
=228
8ee
8ff
8ff#
8gg
8aa
8gg
=229
4gg
4b
8dd
16cc
16dd
=230
4cc
4g
8ee
16dd
16ee
=231
4dd
4g
8ff
16ee
16ff
=232
4ee
4cc
4aa
=233
2gg
4ff#
=234
8.gg
16aa
8.bb
16ccc
8.ddd
16eee
=235
4fff
2r
=236
2.ff
=237
4ee
4dd
4aa
=238
2cc
4dd
=239
4ccc
4gg
4gg
=240
4ccc
4gg#
4gg#
=241
2.gg#
=242
4aa
8gg
8ff
8ee
8dd
=243
2cc
4dd
=244
4ccc
4gg
4gg
=245
4ccc
4aa-
4aa-
=246
2.aa-[
=247
4aa-]
4aa-
4aa-
=248
2.aa-
=249
4gg-
4ff
4gg-
=250
4gg-
4ff
4ff
=251
4r
4ff
4ff
=252
4ff
4gg-
4ff
=253
4r
4ff
4ff
=254
4ff
4gg-
4ff
=255
4r
4ff
4ff
=256
4ff
4gg-
4ff
=257
4r
4ff
4ff
=258
4ff
4gg
4ff
=259
4ee-
4dd
4ee-
=260
4dd
4gg
4gg
=261
2gg
4ff#
=262
2gg
4bb
=263
2ccc
4ff#
=264
4gg
2r
=265
2.r
=266
4r
4ccc
4ccc
=267
2.ccc
=268
2.ccc
=269
2.ccc
=270
2.ccc
=271
2.ccc[
=272
4ccc]
4aa
4ff
=273
4ee
4ff
4dd
=274
4cc
2r
=275
2.r
=276
8cc
16dd
16ee
16ff
16gg
16aa
16bb
16ccc
16ddd
16eee
16fff
=277
8ggg
8eee
8ccc
8gg
8ee
8cc
=278
4a
4aa
4r
=279
8r
8gg#
8aa
8ff#
8gg
8ee
=280
8ff
8cc#
8dd
8ee
8ff
8dd
=281
2.dd[
=282
2.dd]
=283
4cc
2r
=284
2.g
=285
4e
2r
=286
2.ff
=287
4ee
2r
=288
2.bb
=289
4ccc
2r
==
*-
